!!!COM: Bach, Johann Sebastian
!!!CDT: 1685/3//-1750/7/28/
!!!OTL@@DE: Herr Jesu Christ, dich zu uns wend'
!!!AGN: 4-Part Chorale
!!!SCT: BH 136
!!!SCT: BWV 332
**harm	**root	**kern	**kern	**kern	**kern
!	!	!bass	!tenor	!alto	!soprno
*	*Iorgan	*Iorgan	*Iorgan	*Iorgan	*Iorgan
*	*	*clefF4	*clefF4	*clefG2	*clefG2
*k[]	*k[]	*k[]	*k[]	*k[]	*k[]
*C:	*C:	*C:	*C:	*C:	*C:
*M4/4	*M4/4	*M4/4	*M4/4	*M4/4	*M4/4
*met(c)	*met(c)	*met(c)	*met(c)	*met(c)	*met(c)
*MM60	*MM60	*MM60	*MM60	*MM60	*MM60
I	4GG	4C	4e	4g	4cc
=1	=1	=1	=1	=1	=1
I	4GG	4C	4g	4cc	4ee
Vb	4DD	4BB	4g	[4dd	4gg
I	4GG	8C	4g	8dd]	4ee
.	.	8E	.	4cc	.
V	4DD	4G	4g	.	4dd
.	.	.	.	8b	.
=2	=2	=2	=2	=2	=2
I	4GG	8c	4g	4cc	4ee
.	.	8B	.	.	.
viiob/V	4CC#	4A	4a	4cc	4ff#
V;	4DD;	4G;	4d;	4b;	4gg;
ii	4AA	8d	4f	4dd	4aa
.	.	8c	.	.	.
=3	=3	=3	=3	=3	=3
V7	4DD	4B	4g	4.dd	8gg
.	.	.	.	.	8ff
I	4GG	4c	4g	.	4ee
.	.	.	.	[8cc	.
V7b/V	8AA	8F#	8a	8cc]	4dd
V7b/VI	8BB	8G#	4e	8b	.
vi	8EE	8A	.	8a	8cc
Vb	8DD	8B	[8d	8g	8dd
=4	=4	=4	=4	=4	=4
I	4GG	4c	8d]	4g	4ee
.	.	.	4c	.	.
V	4DD	4G	.	4g	4dd
.	.	.	8B	.	.
I;	4GG;	4C;	4e;	4g;	4cc;
V	4DD	4G	4g	4b	4dd
!!linebreak: 2
=5	=5	=5	=5	=5	=5
I	4GG	8C	4g	4cc	4ee
.	.	8D	.	.	.
Ib	4GG	8E	4g	4cc	4ee
.	.	8F#	.	.	.
V	2DD	8G	4g	4cc	4dd
.	.	8A	.	.	.
.	.	8B	8d	4b	4gg
.	.	8e	8g	.	.
=6	=6	=6	=6	=6	=6
vi7	4EE	8c	8e	4a	4gg
.	.	8A	8c	.	.
V/V	4AA	8d	4d	4a	4ff#
.	.	8D	.	.	.
V;	4DD;	4G;	4d;	4b;	4gg;
V7/IV	4GG	8c	4c	4g	4ee
.	.	8B-	.	.	.
=7	=7	=7	=7	=7	=7
IVb	4CC	8A	8c	4a	4ff
.	.	8By	8d	.	.
I	4GG	4c	4e	8g	4ee
.	.	.	.	[8cc	.
V7b/V	8AA	8F#	8a	8cc]	4dd
V7b/VI	8BB	8G#	8e	4b	.
vi	4EE	4A	4e	.	4cc
.	.	.	.	8a	.
=8	=8	=8	=8	=8	=8
Ib	4GG	8E	4e	4g	4cc
.	.	8F	.	.	.
V	4DD	4G	4d	4g	4b
I;	4GG;	4C;	4e;	4g;	4cc;
==	==	==	==	==	==
*-	*-	*-	*-	*-	*-
!!chor2scor: -l 2 -s 0.6 -o %b.pmx
!!!YEC: Copyright 2003 by Craig Stuart Sapp
!!!license: GNU General Public License (http://www.gnu.org/copyleft/gpl.html)
!!!SMA: 371 Bach Chorales, edited by Ludwig Erk, C.F. Peters
!!!PDT: 1850, 1865
!!!ONB: Harmony and Root analysis done manually by Craig Sapp
